<?xml version="1.0" encoding="UTF-8"?>
<map version="1.10" tiledversion="1.11.2" orientation="orthogonal" renderorder="left-up" width="40" height="32" tilewidth="8" tileheight="8" infinite="0" nextlayerid="14" nextobjectid="84">
 <tileset firstgid="1" source="pacman_tiles.tsx"/>
 <tileset firstgid="865" source="pacman_char.tsx"/>
 <tileset firstgid="873" source="gum_tiles.tsx"/>
 <layer id="2" name="Fond noir" width="40" height="32">
  <data encoding="csv">
0,0,0,0,0,0,0,0,0,0,0,0,0,0,0,0,0,0,0,471,471,0,546,546,0,0,0,0,0,0,0,0,0,546,0,0,546,546,0,0,
0,0,0,0,0,0,0,0,0,0,0,0,0,0,0,0,0,0,546,471,471,546,406,546,546,546,546,546,546,546,546,546,546,546,0,0,546,546,546,0,
0,0,333,333,333,333,0,0,616,616,616,616,616,616,0,0,471,0,0,451,451,406,0,471,0,0,687,687,687,687,687,687,513,513,294,294,546,546,294,294,
0,0,333,333,0,0,0,0,405,405,472,472,405,405,726,631,400,726,0,0,0,0,419,616,419,515,687,687,687,687,687,687,513,513,294,294,642,546,294,294,
0,0,333,333,0,0,0,0,0,0,472,472,631,631,0,0,400,726,0,336,336,0,419,616,0,0,515,515,687,687,513,546,546,546,370,546,546,546,546,0,
0,0,0,0,0,0,297,297,0,0,472,472,631,631,506,506,400,726,0,336,336,0,419,616,419,0,515,515,687,687,513,0,479,546,370,546,546,546,546,0,
0,0,0,0,0,0,297,297,0,0,472,472,631,631,400,400,400,726,0,336,336,0,419,616,577,577,515,515,687,687,513,419,332,332,370,0,294,294,0,0,
0,0,333,333,333,333,297,297,0,0,472,472,631,631,400,400,400,726,0,336,336,0,419,616,577,577,515,515,687,687,513,419,332,546,546,0,294,294,546,546,
0,0,333,333,333,333,0,0,0,0,472,472,631,631,0,631,400,726,0,451,451,0,419,616,419,0,515,515,687,687,513,419,332,546,546,546,294,294,0,546,
0,0,0,0,333,333,405,405,0,0,472,472,631,631,0,0,400,726,0,0,0,0,419,616,419,0,515,515,687,687,513,419,332,546,546,294,294,294,546,546,
0,0,0,0,333,333,405,405,472,472,472,472,472,472,631,631,400,400,336,336,336,336,616,616,577,577,406,406,687,687,513,419,332,546,546,294,294,294,546,0,
507,507,478,478,478,0,0,0,0,0,631,631,631,631,631,0,406,406,407,407,407,407,419,407,0,0,0,0,0,0,0,0,332,0,0,0,403,546,546,0,
507,507,478,478,478,478,0,0,0,0,0,406,406,0,0,268,407,407,407,407,407,407,407,407,268,0,0,0,0,0,0,0,332,0,0,0,0,0,0,405,
507,507,507,507,507,472,407,550,299,299,407,406,299,298,0,268,336,336,336,268,268,336,336,336,268,0,332,332,332,332,443,443,332,0,0,507,507,507,507,507,
507,507,507,507,507,472,407,550,299,299,407,406,299,298,0,268,336,268,268,268,268,268,268,336,268,0,0,0,0,0,0,0,330,0,0,507,507,507,507,507,
478,478,478,478,478,478,406,550,299,299,407,406,298,298,0,268,336,268,268,268,268,268,268,336,268,0,0,0,0,0,0,0,330,0,0,0,0,0,405,405,
0,0,407,407,407,367,406,406,406,406,0,372,372,372,0,268,336,268,268,268,268,268,268,336,268,0,330,330,330,330,330,330,330,0,0,442,442,442,405,405,
472,472,472,472,472,472,407,407,407,407,407,0,0,0,0,268,336,336,336,336,336,336,336,336,268,0,330,330,330,330,330,330,330,0,0,507,507,507,507,507,
472,472,472,472,472,472,0,0,507,507,0,0,298,298,0,268,268,268,268,268,268,268,268,268,268,0,0,0,0,0,0,0,441,0,0,507,507,507,507,507,
0,0,550,550,550,550,0,0,507,507,0,0,298,298,0,0,268,0,0,0,268,268,268,268,0,0,0,0,0,0,0,0,0,0,441,298,443,443,331,331,
0,0,550,550,0,476,0,0,507,507,0,0,329,329,0,0,333,333,332,332,332,332,332,332,0,0,334,334,334,334,334,334,0,0,298,298,443,443,331,331,
0,0,650,650,650,650,0,0,507,507,0,0,329,329,0,0,333,331,331,331,331,331,331,331,0,0,334,334,334,334,334,334,0,0,442,0,0,0,0,0,
0,0,552,552,552,552,0,0,507,507,0,0,329,329,0,0,333,331,0,0,0,0,0,370,0,0,334,334,0,0,334,334,0,0,0,0,0,0,0,0,
0,0,586,586,586,586,0,0,297,297,0,0,329,329,0,0,333,331,0,0,0,0,0,370,0,0,334,334,0,0,334,334,298,298,0,0,298,298,0,0,
0,0,650,650,650,650,0,404,329,297,0,0,329,329,0,0,333,331,403,404,331,331,331,331,334,334,334,334,0,0,334,334,298,298,0,0,298,298,0,0,
0,0,650,650,650,650,0,404,297,297,0,0,406,406,0,0,333,331,403,0,0,0,0,370,0,0,334,334,0,0,334,334,0,0,0,0,0,0,0,0,
0,0,0,0,0,0,550,550,297,297,0,0,0,0,0,0,333,331,403,370,370,370,370,370,0,0,334,334,0,0,334,334,0,0,0,0,0,0,0,0,
0,0,552,552,552,552,550,550,297,297,297,297,297,297,0,0,331,331,331,331,331,331,331,331,0,0,334,334,334,334,334,334,0,0,298,298,0,0,298,298,
0,0,295,295,472,472,550,550,297,297,297,297,297,297,0,0,331,331,331,331,331,331,331,331,0,0,334,334,334,334,334,334,0,0,298,298,0,0,298,298,
0,0,0,0,0,0,0,0,0,0,0,0,0,0,0,0,0,0,0,0,0,0,0,0,0,0,0,0,0,0,0,0,0,0,0,0,0,0,0,0,
0,0,0,0,0,0,0,0,0,0,0,0,0,0,0,0,0,0,0,0,0,0,0,0,0,0,0,0,0,0,0,0,0,0,0,0,0,0,0,0,
0,0,0,0,0,0,0,0,0,0,0,0,0,0,0,0,0,0,0,0,0,0,0,0,0,0,0,0,0,0,0,0,0,0,0,0,0,0,0,0
</data>
 </layer>
 <layer id="3" name="Murs 1" width="40" height="32">
  <data encoding="csv">
0,0,0,0,0,0,0,0,0,0,0,0,0,0,0,0,0,0,0,591,592,0,0,0,0,0,0,0,0,0,0,0,0,737,0,0,0,0,0,0,
0,0,0,0,0,0,0,0,0,0,0,0,0,0,0,0,0,0,546,769,778,546,546,546,546,546,515,515,546,546,546,546,0,546,0,546,546,546,546,0,
0,0,0,3221226225,0,0,0,0,655,657,737,737,657,2147484303,0,0,439,0,546,695,695,546,0,439,546,546,733,738,738,738,738,2147484381,548,546,193,528,546,546,193,739,
0,0,0,0,818,818,0,0,695,695,405,405,695,695,0,631,475,726,0,451,451,0,419,475,419,515,2147484426,772,515,515,772,778,546,546,337,2147483985,0,546,337,771,
0,0,0,0,0,0,0,0,405,405,627,628,405,405,631,631,475,726,0,0,0,0,419,0,419,515,387,387,627,592,387,387,0,546,818,818,0,546,818,818,
0,0,818,818,0,0,0,0,0,0,627,628,559,559,529,531,646,726,0,0,0,0,419,0,419,515,515,515,627,592,419,546,546,546,546,546,0,546,546,546,
0,0,0,0,0,0,0,0,0,0,627,628,559,0,645,455,628,726,0,0,0,0,419,627,737,528,515,515,627,592,419,546,3221226225,546,546,546,0,546,546,546,
0,0,0,0,0,3221226225,753,0,0,0,627,628,559,559,1073742557,1073742558,628,726,0,769,778,0,419,627,1073742561,1073742352,515,515,627,592,419,546,546,818,546,546,591,628,546,664,
0,0,0,0,0,0,818,818,0,0,627,628,559,559,695,695,475,726,0,808,808,0,419,0,695,695,515,515,627,592,419,419,546,546,546,546,591,628,546,546,
0,0,818,818,0,0,0,0,0,0,627,628,559,559,0,631,475,726,0,0,0,0,419,0,419,0,515,515,627,592,419,419,546,546,546,525,753,628,546,0,
0,0,0,0,0,0,0,0,659,660,775,775,660,662,559,559,769,726,0,0,0,0,419,1610612903,657,662,515,515,2147484426,778,419,419,546,546,546,769,773,778,546,0,
738,2147484381,0,0,818,818,0,0,818,818,818,818,818,818,559,559,816,726,0,0,0,0,419,0,695,695,515,515,387,387,0,0,546,546,0,818,818,818,546,0,
478,628,0,0,0,0,0,0,0,0,0,0,0,0,0,0,0,0,0,0,0,0,0,0,0,0,0,0,0,0,0,0,546,546,0,0,0,0,0,0,
552,2147484401,738,738,738,2147484381,0,0,733,742,0,0,525,742,0,0,0,0,0,0,0,0,0,0,0,0,655,656,656,662,0,0,0,0,0,733,738,738,738,738,
771,771,771,771,771,2147484417,0,0,555,592,0,0,591,592,0,0,0,0,0,0,0,0,0,0,0,0,818,818,818,818,0,0,0,0,0,769,771,771,771,771,
604,604,604,604,604,604,0,550,769,778,0,0,769,778,0,0,0,0,0,0,0,0,0,0,0,0,0,0,0,0,0,0,0,0,0,387,387,387,387,387,
478,478,0,0,478,478,478,478,693,820,0,0,820,820,0,0,0,0,0,0,0,0,0,0,0,0,733,740,740,740,740,740,628,0,0,442,442,442,0,0,
738,738,738,738,738,2147484381,0,0,0,0,0,0,0,0,0,0,0,0,0,0,0,0,0,0,0,0,769,773,773,773,773,773,778,0,0,733,738,738,738,738,
771,771,771,771,771,2147484417,0,0,525,742,0,0,525,742,0,0,0,0,0,0,0,0,0,0,0,0,818,818,818,818,818,818,818,0,0,591,772,772,0,442,
604,604,604,604,604,604,0,0,591,592,0,0,591,592,0,0,0,0,0,0,0,0,0,0,0,0,0,0,0,0,0,0,0,0,0,482,387,387,627,442,
0,0,550,550,550,550,0,0,591,592,0,0,591,592,0,0,747,738,738,738,738,738,738,756,0,0,747,738,738,738,738,756,0,0,655,792,0,0,783,774,
0,0,655,656,657,658,0,0,591,592,0,0,591,592,0,0,591,3221226225,771,771,771,771,771,792,0,0,591,3221226225,772,772,1073742577,672,0,0,819,819,0,0,819,819,
0,0,691,692,693,694,0,0,591,592,0,0,591,592,0,0,591,672,819,819,819,819,819,819,0,0,591,638,819,819,627,672,0,0,0,0,0,0,0,0,
0,0,552,552,552,552,0,0,591,592,0,0,591,592,0,0,591,672,0,0,0,640,640,640,0,0,591,638,0,0,627,2147484401,738,756,0,0,747,756,0,0,
0,0,733,737,737,2147484381,0,0,591,592,0,0,769,778,0,0,591,672,0,0,655,660,660,660,660,660,1073742577,638,0,0,627,3221226225,774,792,0,0,783,792,0,0,
0,0,769,772,772,2147484417,0,0,591,592,0,0,820,820,0,0,591,672,0,0,819,819,819,819,819,819,591,638,0,0,627,672,819,819,0,0,819,819,0,0,
0,0,693,693,693,693,552,552,591,592,0,0,0,0,0,0,591,672,0,0,0,0,0,0,0,0,591,638,0,0,627,672,0,0,0,0,0,0,0,0,
0,0,552,0,0,0,552,552,591,2147484401,738,738,738,742,0,0,591,2147484401,738,738,738,738,738,742,0,0,591,2147484401,749,749,753,672,0,0,747,756,0,0,733,738,
0,0,655,656,657,658,552,552,769,774,774,774,774,778,0,0,783,774,774,774,774,774,774,792,0,0,783,774,774,774,774,792,0,0,783,792,0,0,783,774,
0,0,691,692,693,694,552,552,820,820,820,820,820,820,0,0,816,816,816,816,816,816,816,816,0,0,819,819,819,819,819,819,0,0,819,819,0,0,819,819,
0,0,0,0,0,0,0,0,0,0,0,0,0,0,0,0,0,0,0,0,0,0,0,0,0,0,0,0,0,0,0,0,0,0,0,0,0,0,0,0,
0,0,0,0,0,0,0,0,0,0,0,0,0,0,0,0,0,0,0,0,0,0,0,0,0,0,0,0,0,0,0,0,0,0,0,0,0,0,0,0
</data>
 </layer>
 <layer id="1" name="Murs 2" width="40" height="32">
  <data encoding="csv">
33,34,34,34,34,34,34,34,34,34,34,34,34,34,34,34,34,34,34,440,440,34,34,34,34,34,34,34,34,34,34,34,34,546,34,34,34,34,34,36,
105,0,0,0,0,106,106,106,106,106,106,106,106,106,106,106,106,106,546,546,546,546,546,546,546,546,546,546,546,546,546,546,546,546,106,546,546,546,546,72,
105,0,733,738,657,662,0,0,0,0,1073742577,3221226225,0,0,0,0,0,0,546,451,451,546,305,546,546,546,546,546,515,546,546,546,0,546,0,546,546,546,546,522,
105,0,627,672,0,0,0,406,631,631,627,2147484275,631,631,631,631,513,726,0,451,451,407,419,513,419,515,515,515,1073742577,3221226225,515,546,546,546,0,546,546,546,546,522,
105,0,769,778,0,0,0,0,0,631,631,631,631,631,631,631,622,726,0,33,36,0,419,511,419,515,515,515,515,515,0,546,546,546,0,546,546,546,546,72,
105,0,0,0,0,0,733,528,0,631,406,0,559,559,455,455,753,726,0,69,108,305,419,511,0,0,515,515,515,419,419,546,546,546,0,546,546,546,546,72,
105,0,0,0,0,0,627,672,0,406,406,0,559,559,455,455,455,726,0,69,108,305,419,2147484401,0,0,515,515,515,419,419,546,525,662,0,546,525,528,546,72,
105,0,733,737,737,737,775,778,0,406,406,0,559,559,559,631,1073742577,726,0,69,108,305,419,3221226225,0,0,515,515,515,419,419,546,511,546,0,546,0,546,546,546,
105,0,769,775,1073742577,672,0,0,0,406,0,0,559,559,559,631,622,726,0,631,631,305,419,511,0,0,515,515,515,406,419,546,511,546,0,0,0,546,546,72,
105,0,0,0,627,672,0,0,0,406,549,0,559,559,0,622,622,726,0,631,631,305,419,511,0,0,515,515,62,406,419,419,511,546,546,0,0,0,546,72,
105,0,0,0,769,778,0,406,406,406,753,2147484401,559,559,559,559,2147484401,660,340,340,340,340,657,772,0,0,515,515,406,419,419,419,511,546,546,546,546,546,546,72,
499,0,0,0,0,0,0,0,0,0,0,0,0,0,0,0,479,695,695,695,695,695,696,696,0,0,0,515,0,0,0,0,511,492,492,0,0,0,546,72,
499,0,0,0,0,0,0,0,0,0,0,0,0,305,0,0,268,268,268,268,268,0,0,407,0,0,0,0,0,0,0,0,511,0,0,0,0,0,0,72,
552,0,0,0,0,0,0,0,0,121,121,0,0,305,0,0,193,194,662,268,268,659,199,200,305,305,305,305,305,305,305,593,511,305,0,0,0,0,0,442,
552,0,0,0,0,0,0,121,0,121,121,0,305,305,0,0,229,230,696,268,268,696,235,236,305,305,305,305,305,305,305,593,511,593,593,0,0,0,0,442,
552,0,0,0,0,0,0,121,121,121,121,0,0,305,0,0,265,266,268,268,268,268,121,272,121,121,121,121,121,121,121,121,511,593,593,593,0,0,0,587,
552,0,0,0,0,0,0,121,121,121,121,0,305,305,0,0,301,266,268,268,268,268,305,308,121,121,121,121,121,121,268,121,753,121,0,593,593,0,0,587,
552,0,0,0,0,0,0,0,121,121,121,0,305,305,0,0,337,338,338,338,338,338,338,344,0,0,121,121,0,0,0,121,121,121,0,593,593,0,0,442,
552,0,0,0,0,0,0,0,121,121,305,305,305,305,305,305,374,374,374,374,374,374,374,374,305,121,121,0,0,0,0,0,121,121,0,3221226225,593,0,1073742577,442,
105,0,0,0,0,0,0,0,305,305,305,305,305,0,305,305,305,305,305,305,305,305,305,305,305,121,0,0,0,0,0,0,121,121,0,0,0,0,442,442,
105,0,0,0,0,0,0,0,305,305,305,305,305,304,305,305,305,305,305,305,305,305,268,0,305,305,121,0,0,0,0,0,121,121,0,753,0,0,0,452,
105,0,0,0,0,0,0,0,305,305,305,305,305,121,305,121,267,305,305,305,305,305,306,0,0,121,121,0,0,0,0,0,121,121,0,0,0,0,0,72,
105,0,0,0,0,0,0,0,305,305,305,305,305,121,121,0,305,305,307,305,305,305,121,121,121,121,121,121,121,121,121,121,121,121,0,0,0,0,0,72,
105,0,0,0,0,0,0,0,305,305,305,305,121,121,121,121,121,121,121,121,121,121,121,121,121,121,121,121,121,121,121,121,121,121,0,0,0,0,0,72,
105,0,0,0,0,0,0,0,121,121,305,121,121,121,0,0,0,121,0,0,0,0,0,0,0,0,753,0,0,0,0,0,0,0,0,0,0,0,0,72,
105,0,0,0,0,0,0,0,0,121,0,0,0,0,0,0,0,0,0,0,0,0,0,0,0,0,0,0,0,0,0,0,0,0,0,0,0,0,0,72,
105,0,0,0,0,0,0,0,0,121,0,0,0,0,0,0,0,0,0,0,0,0,0,0,0,0,0,0,0,0,0,0,0,0,0,0,0,0,0,72,
105,0,0,0,0,0,0,0,0,0,0,0,0,0,0,0,0,0,0,0,0,0,0,0,0,0,0,0,0,0,0,0,0,0,0,0,0,0,406,452,
105,0,0,0,0,0,0,406,406,406,0,0,0,406,406,0,0,0,0,0,0,0,0,0,0,0,0,0,0,0,0,0,0,0,0,0,0,0,406,452,
105,406,406,406,406,406,406,406,406,406,406,406,406,406,406,406,406,406,406,406,406,406,406,406,406,406,406,406,406,406,406,406,406,406,406,406,406,406,406,72,
141,143,143,143,143,143,143,143,143,143,143,143,143,143,143,143,143,143,143,143,143,143,143,143,143,143,143,143,143,143,143,143,143,143,143,143,143,143,143,144,
179,179,179,179,179,179,179,179,179,179,179,179,179,179,179,179,179,179,179,179,179,179,179,179,179,179,179,179,179,179,179,179,179,179,179,179,179,179,179,179
</data>
 </layer>
 <layer id="11" name="Invisible_gum" width="40" height="32" visible="0">
  <data encoding="csv">
0,0,0,0,0,0,0,0,0,0,0,0,0,0,0,0,0,0,0,0,0,0,0,0,0,0,0,0,0,0,0,0,0,0,0,0,0,0,0,0,
0,0,0,0,0,0,0,0,0,0,0,0,0,0,0,0,0,0,0,0,0,874,0,874,874,0,874,0,874,0,874,0,874,0,874,0,874,0,874,0,
0,0,0,0,0,0,0,0,0,0,0,0,0,0,0,0,0,0,0,0,0,0,0,0,0,0,0,0,0,0,0,0,0,0,0,0,0,0,0,0,
0,0,0,0,0,0,0,0,0,0,0,0,0,0,0,0,0,874,0,874,0,874,0,0,874,0,0,0,0,0,0,0,874,0,0,0,874,0,0,0,
0,0,0,0,0,0,0,0,0,0,0,0,0,0,0,0,0,0,0,0,0,0,0,0,0,0,0,0,0,0,0,0,0,0,0,0,0,0,0,0,
0,0,0,0,0,0,0,0,0,0,0,0,0,0,0,0,0,874,0,0,0,874,0,0,874,0,874,0,0,0,874,0,874,0,874,0,874,0,874,0,
0,0,0,0,0,0,0,0,0,0,0,0,0,0,0,0,0,0,0,0,0,0,0,0,0,0,0,0,0,0,0,0,0,0,0,0,0,0,0,0,
0,0,0,0,0,0,0,0,0,0,0,0,0,0,0,0,0,874,0,0,0,874,0,0,0,0,874,0,0,0,874,0,0,0,874,0,0,0,874,0,
0,0,0,0,0,0,0,0,0,0,0,0,0,0,0,0,0,0,0,0,0,0,0,0,0,0,0,0,0,0,0,0,0,874,0,0,0,0,0,0,
0,0,0,0,0,0,0,0,0,0,0,0,0,0,0,0,0,874,0,874,0,874,0,0,874,0,874,0,0,0,874,0,0,0,0,0,0,0,874,0,
0,0,0,0,0,0,0,0,0,0,0,0,0,0,0,0,0,0,0,0,0,0,0,0,0,0,0,0,0,0,0,0,0,874,0,0,0,0,0,0,
0,0,0,0,0,0,0,0,0,0,0,0,0,0,0,0,0,0,0,0,0,0,0,0,0,0,0,0,0,0,874,0,0,0,0,0,0,0,874,0,
0,0,0,0,0,0,0,0,0,0,0,0,0,0,0,0,0,0,0,0,0,0,0,0,874,0,874,0,874,0,0,0,0,874,0,874,0,874,0,0,
0,0,0,0,0,0,0,0,0,0,0,0,0,0,0,0,0,0,0,0,0,0,0,0,874,0,0,0,0,0,874,0,0,0,0,0,0,0,0,0,
0,0,0,0,0,0,0,0,0,0,0,0,0,0,0,0,0,0,0,0,0,0,0,0,0,0,0,0,0,0,0,0,0,874,0,0,0,0,0,0,
0,0,0,0,0,0,0,0,0,0,0,0,0,0,0,0,0,0,0,0,0,0,0,0,874,0,874,0,874,0,874,0,0,0,0,0,0,0,0,0,
0,0,0,0,0,0,0,0,0,0,0,0,0,0,0,0,0,0,0,0,0,0,0,0,0,0,0,0,0,0,0,0,0,874,0,874,0,874,0,0,
0,0,0,0,0,0,0,0,0,0,0,0,0,0,0,0,0,0,0,0,0,0,0,0,874,0,0,0,0,0,0,0,0,0,0,0,0,0,0,0,
0,0,0,0,0,0,0,0,0,0,0,0,0,0,0,0,0,0,0,0,0,0,0,0,0,0,0,0,0,0,0,0,0,874,0,0,0,0,0,0,
0,0,0,0,0,0,0,0,0,0,0,0,0,0,0,0,0,0,0,0,0,0,0,0,874,0,874,0,874,0,874,0,874,0,0,0,0,0,0,0,
0,0,0,0,0,0,0,0,0,0,0,0,0,0,0,0,0,0,0,0,0,0,0,0,0,0,0,0,0,0,0,0,0,0,0,0,874,0,0,0,
0,0,0,0,0,0,0,0,0,0,0,0,0,0,0,0,0,0,0,0,0,0,0,0,0,0,0,0,0,0,0,0,874,0,0,0,0,0,0,0,
0,0,0,0,0,0,0,0,0,0,0,0,0,0,0,0,0,0,0,0,0,0,0,0,0,0,0,0,0,0,0,0,0,0,874,0,874,0,874,0,
0,0,0,0,0,0,0,0,0,0,0,0,0,0,0,0,0,0,0,0,0,0,0,0,0,0,0,0,0,0,0,0,0,0,0,0,0,0,0,0,
0,0,0,0,0,0,0,0,0,0,0,0,0,0,0,0,0,0,0,0,0,0,0,0,0,0,0,0,0,0,0,0,0,0,874,0,0,0,874,0,
0,0,0,0,0,0,0,0,0,0,0,0,0,0,0,0,0,0,0,0,0,0,0,0,0,0,0,0,0,0,0,0,0,0,0,0,0,0,0,0,
0,0,0,0,0,0,0,0,0,0,0,0,0,0,0,0,0,0,0,0,0,0,0,0,0,0,0,0,0,0,0,0,0,0,0,0,0,0,874,0,
0,0,0,0,0,0,0,0,0,0,0,0,0,0,0,0,0,0,0,0,0,0,0,0,0,0,0,0,0,0,0,0,0,0,0,0,0,0,0,0,
0,0,0,0,0,0,0,0,0,0,0,0,0,0,0,0,0,0,0,0,0,0,0,0,0,0,0,0,0,0,0,0,0,0,0,0,0,0,0,0,
0,0,0,0,0,0,0,0,0,0,0,0,0,0,0,0,0,0,0,0,0,0,0,0,0,0,0,0,0,0,0,0,0,0,0,0,0,0,0,0,
0,0,0,0,0,0,0,0,0,0,0,0,0,0,0,0,0,0,0,0,0,0,0,0,0,0,0,0,0,0,0,0,0,0,0,0,0,0,0,0,
0,0,0,0,0,0,0,0,0,0,0,0,0,0,0,0,0,0,0,0,0,0,0,0,0,0,0,0,0,0,0,0,0,0,0,0,0,0,0,0
</data>
 </layer>
 <objectgroup id="12" name="Gum">
  <object id="60" type="Gum" x="141" y="22" width="6" height="6"/>
  <object id="61" type="Gum" x="140.75" y="38.25" width="6.5" height="6.25"/>
  <object id="62" type="Gum" x="141.25" y="54.25" width="5.75" height="6"/>
  <object id="63" type="Gum" x="141" y="70.25" width="6" height="6.25"/>
  <object id="64" type="Gum" x="156.75" y="70.25" width="6.25" height="6"/>
  <object id="65" type="Gum" x="172.75" y="69.75" width="6.5" height="7"/>
  <object id="66" type="Gum" x="173" y="54.5" width="5.75" height="6"/>
  <object id="67" type="Gum" x="172.75" y="38.25" width="6.25" height="6.25"/>
  <object id="68" type="Gum" x="156.75" y="22.5" width="6.25" height="6.25"/>
  <object id="69" type="Gum" x="173" y="22" width="6" height="6"/>
  <object id="70" type="Gum" x="172.5" y="6" width="6.75" height="6.25"/>
  <object id="71" type="Gum" x="189.75" y="6.25" width="5.25" height="5"/>
  <object id="72" type="Gum" x="197.25" y="6.25" width="5.5" height="5.5"/>
  <object id="73" type="Gum" x="197" y="22.25" width="6" height="5.25"/>
  <object id="74" type="Gum" x="197.75" y="38.25" width="5.5" height="5.5"/>
 </objectgroup>
 <objectgroup id="13" name="Walls">
  <object id="76" type="Wall" x="152" y="0" width="15.6364" height="15.7273"/>
  <object id="77" type="Wall" x="152.091" y="32.1818" width="15.7273" height="31.6364"/>
  <object id="78" type="Wall" x="183.875" y="16.125" width="7.75" height="63.875"/>
  <object id="79" type="Wall" x="191.875" y="48.125" width="15.875" height="15.5"/>
  <object id="80" type="Wall" x="128" y="80.125" width="79.875" height="7.875"/>
  <object id="81" type="Wall" x="127.875" y="16.125" width="8.25" height="63.875"/>
  <object id="82" type="Wall" x="111.875" y="40.125" width="15.875" height="23.75"/>
 </objectgroup>
</map>
